X:9830
T:Lord Cananar's() Reel,unedited. JB.04
M:2/4
L:1/8
Q:200
S:James Biggins MS, Leeds, 1779.
R:Reel
O:England
A:Yorkshire
Z:vmp.Nick Barber & Chris Partington
K:C
"key-as writ"A/B/cd2d2|dAFD|ddA|B2A B-c|dA BG|AF Bd|E>FGA|B3A:|!
|:g|fd ag|fd dg|fd ag|f3e f-g|af ge|fd ec|E>FGA|B3A:|]
